assets/images/members/harica/harica.svg

<svg xmlns="http://www.w3.org/2000/svg" viewBox="0 0 168 28"><path fill-rule="evenodd" d="M4 0h20c2.21 0 4 1.79 4 4v20c0 2.21-1.79 4-4 4H4c-2.21 0-4-1.79-4-4V4c0-2.21 1.79-4 4-4m-.49 21.66c.28.82.86 2.06 1.74 3.74H8.8c3.27-5.05 5.88-8.95 7.82-11.73 1.95-2.77 4.87-6.65 8.78-11.65-1.84-.09-3.07-.09-3.7 0-.63.1-1.34.66-2.14 1.7L7.16 20.8c-.39-.95-.64-1.77-.74-2.45q-.06-.42-.3-2.76c-.72-.12-1.39-.06-2.01.19-.63.25-1.13.69-1.51 1.31.32 2.23.62 3.76.91 4.57" style="fill:#4b9fe0"/><path fill-rule="evenodd" d="M36.6 27V1.8h3.46v11.23h14.4V1.8h3.49V27h-3.49V16.16h-14.4V27zm23.48 0L71.27 1.8h3.6L86.03 27h-3.74l-2.67-6.12H66.34L63.71 27zM72.96 5.51l-5.25 12.24h10.58zM88.13 27V1.8h9.86c3.19 0 5.66.74 7.4 2.21 1.74 1.48 2.61 3.57 2.61 6.29 0 2.04-.48 3.75-1.42 5.14-.95 1.4-2.31 2.4-4.09 3.03l5.87 8.53h-3.96l-5.01-7.92c-.57.05-1.04.07-1.4.07h-6.41V27zm9.86-10.98c2.16 0 3.82-.47 4.97-1.42s1.73-2.35 1.73-4.2c0-1.8-.58-3.16-1.73-4.08-1.15-.93-2.81-1.39-4.97-1.39h-6.41v11.09zM112.57 27V1.8h3.46V27zm13.29-1.46a12.6 12.6 0 0 1-4.71-4.66c-1.15-1.97-1.73-4.14-1.73-6.52 0-2.35.58-4.5 1.75-6.46a12.53 12.53 0 0 1 4.77-4.62c2.01-1.13 4.23-1.7 6.66-1.7 1.75 0 3.45.33 5.09.99s3.07 1.59 4.27 2.79l-2.06 2.49c-.96-1.01-2.07-1.8-3.34-2.36-1.28-.56-2.58-.85-3.93-.85-1.77 0-3.41.44-4.89 1.3a9.5 9.5 0 0 0-3.53 3.51c-.87 1.48-1.3 3.1-1.3 4.88 0 1.75.43 3.37 1.3 4.86a9.56 9.56 0 0 0 3.53 3.53c1.48.86 3.12 1.29 4.89 1.29 1.32 0 2.62-.27 3.89-.81s2.4-1.28 3.38-2.21l2.09 2.27a14.2 14.2 0 0 1-4.43 2.93c-1.68.71-3.38 1.06-5.11 1.06-2.4 0-4.59-.57-6.59-1.71M141.6 27l11.2-25.2h3.6L167.56 27h-3.75l-2.66-6.12h-13.29L145.24 27zm12.89-21.49-5.26 12.24h10.59z" style="fill:#555"/></svg>

<svg xmlns="http://www.w3.org/2000/svg" viewBox="0 0 168 28">
	<style>
		tspan { white-space:pre }
		.shp0 { fill: #4b9fe0 } 
		.shp1 { fill: #555555 } 
	</style>
	<g id="Atoms/Logo">
		<g id="Group">
			<path id="Rectangle" fill-rule="evenodd" class="shp0" d="M4 0L24 0C26.21 0 28 1.79 28 4L28 24C28 26.21 26.21 28 24 28L4 28C1.79 28 0 26.21 0 24L0 4C0 1.79 1.79 0 4 0ZM3.51 21.66C3.79 22.48 4.37 23.72 5.25 25.4L8.8 25.4C12.07 20.35 14.68 16.45 16.62 13.67C18.57 10.9 21.49 7.02 25.4 2.02C23.56 1.93 22.33 1.93 21.7 2.02C21.07 2.12 20.36 2.68 19.56 3.72L7.16 20.8C6.77 19.85 6.52 19.03 6.42 18.35C6.38 18.07 6.28 17.15 6.12 15.59C5.4 15.47 4.73 15.53 4.11 15.78C3.48 16.03 2.98 16.47 2.6 17.09C2.92 19.32 3.22 20.85 3.51 21.66Z" />
		</g>
		<path id="HARICA" fill-rule="evenodd" class="shp1" d="M36.6 27L36.6 1.8L40.06 1.8L40.06 13.03L54.46 13.03L54.46 1.8L57.95 1.8L57.95 27L54.46 27L54.46 16.16L40.06 16.16L40.06 27L36.6 27ZM60.08 27L71.27 1.8L74.87 1.8L86.03 27L82.29 27L79.62 20.88L66.34 20.88L63.71 27L60.08 27ZM72.96 5.51L67.71 17.75L78.29 17.75L72.96 5.51ZM88.13 27L88.13 1.8L97.99 1.8C101.18 1.8 103.65 2.54 105.39 4.01C107.13 5.49 108 7.58 108 10.3C108 12.34 107.52 14.05 106.58 15.44C105.63 16.84 104.27 17.84 102.49 18.47L108.36 27L104.4 27L99.39 19.08C98.82 19.13 98.35 19.15 97.99 19.15L91.58 19.15L91.58 27L88.13 27ZM97.99 16.02C100.15 16.02 101.81 15.55 102.96 14.6C104.11 13.65 104.69 12.25 104.69 10.4C104.69 8.6 104.11 7.24 102.96 6.32C101.81 5.39 100.15 4.93 97.99 4.93L91.58 4.93L91.58 16.02L97.99 16.02ZM112.57 27L112.57 1.8L116.03 1.8L116.03 27L112.57 27ZM125.86 25.54C123.87 24.4 122.3 22.85 121.15 20.88C120 18.91 119.42 16.74 119.42 14.36C119.42 12.01 120 9.86 121.17 7.9C122.33 5.95 123.92 4.4 125.94 3.28C127.95 2.15 130.17 1.58 132.6 1.58C134.35 1.58 136.05 1.91 137.69 2.57C139.33 3.23 140.76 4.16 141.96 5.36L139.9 7.85C138.94 6.84 137.83 6.05 136.56 5.49C135.28 4.93 133.98 4.64 132.63 4.64C130.86 4.64 129.22 5.08 127.74 5.94C126.25 6.8 125.07 7.97 124.21 9.45C123.34 10.93 122.91 12.55 122.91 14.33C122.91 16.08 123.34 17.7 124.21 19.19C125.07 20.68 126.25 21.85 127.74 22.72C129.22 23.58 130.86 24.01 132.63 24.01C133.95 24.01 135.25 23.74 136.52 23.2C137.79 22.66 138.92 21.92 139.9 20.99L141.99 23.26C140.72 24.5 139.24 25.48 137.56 26.19C135.88 26.9 134.18 27.25 132.45 27.25C130.05 27.25 127.86 26.68 125.86 25.54ZM141.6 27L152.8 1.8L156.4 1.8L167.56 27L163.81 27L161.15 20.88L147.86 20.88L145.24 27L141.6 27ZM154.49 5.51L149.23 17.75L159.82 17.75L154.49 5.51Z" />
	</g>
</svg>
